X: 157
T:Jamie Allan
M:2/4
L:1/8
K:A
A/2B/2|"A"cA AB|c2 AB/2c/2|"Bm"dB Bc|d2 cB|"F#m"Aa a/2g/2f|!
"A"e2 cd|"E7"ee d/2c/2B|"A"A3 :||:c/2B/2|"A"Aa ag|fe dc|!
"Bm"Bb ba|"E7"ge fg|"F#m"aa g/2a/2g/2f/2|"A"ee cd|"E7"ee d/2c/2B|"A"A3:|
|
% <A name="D1X158">
